static/img/kroki/6305a56602b6a4d88446e14b7510fff5.svg

<?xml version="1.0" encoding="us-ascii" standalone="no"?><svg xmlns="http://www.w3.org/2000/svg" xmlns:xlink="http://www.w3.org/1999/xlink" contentStyleType="text/css" height="451px" preserveAspectRatio="none" style="width:1082px;height:451px;" version="1.1" viewBox="0 0 1082 451" width="1082px" zoomAndPan="magnify"><defs/><g><!--class aws_backup_protected_resource--><g id="elem_aws_backup_protected_resource"><rect codeLine="23" fill="#3D176E" height="39.7891" id="aws_backup_protected_resource" rx="2.5" ry="2.5" style="stroke:#000D19;stroke-width:0.5;" width="311" x="221" y="106.79"/><ellipse cx="236" cy="126.6845" fill="#ADD1B2" rx="11" ry="11" style="stroke:#181818;stroke-width:1.0;"/><path d="M238.9688,132.3252 Q238.3906,132.622 237.75,132.7627 Q237.1094,132.9189 236.4063,132.9189 Q233.9063,132.9189 232.5781,131.2783 Q231.2656,129.622 231.2656,126.497 Q231.2656,123.372 232.5781,121.7158 Q233.9063,120.0595 236.4063,120.0595 Q237.1094,120.0595 237.75,120.2158 Q238.4063,120.372 238.9688,120.6689 L238.9688,123.3877 Q238.3438,122.8095 237.75,122.5439 Q237.1563,122.2627 236.5313,122.2627 Q235.1875,122.2627 234.5,123.3408 Q233.8125,124.4033 233.8125,126.497 Q233.8125,128.5908 234.5,129.6689 Q235.1875,130.7314 236.5313,130.7314 Q237.1563,130.7314 237.75,130.4658 Q238.3438,130.1845 238.9688,129.6064 L238.9688,132.3252 Z " fill="#000000"/><text fill="#D9B8FF" font-family="Helvetica" font-size="17" lengthAdjust="spacing" textLength="269" x="255" y="132.5698">aws_backup_protected_resource</text></g><!--class aws_ec2_security_group--><g id="elem_aws_ec2_security_group"><rect codeLine="26" fill="#3D176E" height="39.7891" id="aws_ec2_security_group" rx="2.5" ry="2.5" style="stroke:#000D19;stroke-width:0.5;" width="245" x="830" y="106.79"/><ellipse cx="845" cy="126.6845" fill="#ADD1B2" rx="11" ry="11" style="stroke:#181818;stroke-width:1.0;"/><path d="M847.9688,132.3252 Q847.3906,132.622 846.75,132.7627 Q846.1094,132.9189 845.4063,132.9189 Q842.9063,132.9189 841.5781,131.2783 Q840.2656,129.622 840.2656,126.497 Q840.2656,123.372 841.5781,121.7158 Q842.9063,120.0595 845.4063,120.0595 Q846.1094,120.0595 846.75,120.2158 Q847.4063,120.372 847.9688,120.6689 L847.9688,123.3877 Q847.3438,122.8095 846.75,122.5439 Q846.1563,122.2627 845.5313,122.2627 Q844.1875,122.2627 843.5,123.3408 Q842.8125,124.4033 842.8125,126.497 Q842.8125,128.5908 843.5,129.6689 Q844.1875,130.7314 845.5313,130.7314 Q846.1563,130.7314 846.75,130.4658 Q847.3438,130.1845 847.9688,129.6064 L847.9688,132.3252 Z " fill="#000000"/><text fill="#D9B8FF" font-family="Helvetica" font-size="17" lengthAdjust="spacing" textLength="203" x="864" y="132.5698">aws_ec2_security_group</text></g><!--class aws_ec2_subnet--><g id="elem_aws_ec2_subnet"><rect codeLine="29" fill="#3D176E" height="39.7891" id="aws_ec2_subnet" rx="2.5" ry="2.5" style="stroke:#000D19;stroke-width:0.5;" width="179" x="7" y="106.79"/><ellipse cx="22" cy="126.6845" fill="#ADD1B2" rx="11" ry="11" style="stroke:#181818;stroke-width:1.0;"/><path d="M24.9688,132.3252 Q24.3906,132.622 23.75,132.7627 Q23.1094,132.9189 22.4063,132.9189 Q19.9063,132.9189 18.5781,131.2783 Q17.2656,129.622 17.2656,126.497 Q17.2656,123.372 18.5781,121.7158 Q19.9063,120.0595 22.4063,120.0595 Q23.1094,120.0595 23.75,120.2158 Q24.4063,120.372 24.9688,120.6689 L24.9688,123.3877 Q24.3438,122.8095 23.75,122.5439 Q23.1563,122.2627 22.5313,122.2627 Q21.1875,122.2627 20.5,123.3408 Q19.8125,124.4033 19.8125,126.497 Q19.8125,128.5908 20.5,129.6689 Q21.1875,130.7314 22.5313,130.7314 Q23.1563,130.7314 23.75,130.4658 Q24.3438,130.1845 24.9688,129.6064 L24.9688,132.3252 Z " fill="#000000"/><text fill="#D9B8FF" font-family="Helvetica" font-size="17" lengthAdjust="spacing" textLength="137" x="41" y="132.5698">aws_ec2_subnet</text></g><!--class aws_iam_role--><g id="elem_aws_iam_role"><rect codeLine="32" fill="#3D176E" height="39.7891" id="aws_iam_role" rx="2.5" ry="2.5" style="stroke:#000D19;stroke-width:0.5;" width="157" x="638" y="106.79"/><ellipse cx="653" cy="126.6845" fill="#ADD1B2" rx="11" ry="11" style="stroke:#181818;stroke-width:1.0;"/><path d="M655.9688,132.3252 Q655.3906,132.622 654.75,132.7627 Q654.1094,132.9189 653.4063,132.9189 Q650.9063,132.9189 649.5781,131.2783 Q648.2656,129.622 648.2656,126.497 Q648.2656,123.372 649.5781,121.7158 Q650.9063,120.0595 653.4063,120.0595 Q654.1094,120.0595 654.75,120.2158 Q655.4063,120.372 655.9688,120.6689 L655.9688,123.3877 Q655.3438,122.8095 654.75,122.5439 Q654.1563,122.2627 653.5313,122.2627 Q652.1875,122.2627 651.5,123.3408 Q650.8125,124.4033 650.8125,126.497 Q650.8125,128.5908 651.5,129.6689 Q652.1875,130.7314 653.5313,130.7314 Q654.1563,130.7314 654.75,130.4658 Q655.3438,130.1845 655.9688,129.6064 L655.9688,132.3252 Z " fill="#000000"/><text fill="#D9B8FF" font-family="Helvetica" font-size="17" lengthAdjust="spacing" textLength="115" x="672" y="132.5698">aws_iam_role</text></g><!--class aws_kms_key--><g id="elem_aws_kms_key"><rect codeLine="35" fill="#3D176E" height="39.7891" id="aws_kms_key" rx="2.5" ry="2.5" style="stroke:#000D19;stroke-width:0.5;" width="158" x="547.5" y="406.16"/><ellipse cx="562.5" cy="426.0545" fill="#ADD1B2" rx="11" ry="11" style="stroke:#181818;stroke-width:1.0;"/><path d="M565.4688,431.6952 Q564.8906,431.992 564.25,432.1327 Q563.6094,432.2889 562.9063,432.2889 Q560.4063,432.2889 559.0781,430.6483 Q557.7656,428.992 557.7656,425.867 Q557.7656,422.742 559.0781,421.0858 Q560.4063,419.4295 562.9063,419.4295 Q563.6094,419.4295 564.25,419.5858 Q564.9063,419.742 565.4688,420.0389 L565.4688,422.7577 Q564.8438,422.1795 564.25,421.9139 Q563.6563,421.6327 563.0313,421.6327 Q561.6875,421.6327 561,422.7108 Q560.3125,423.7733 560.3125,425.867 Q560.3125,427.9608 561,429.0389 Q561.6875,430.1014 563.0313,430.1014 Q563.6563,430.1014 564.25,429.8358 Q564.8438,429.5545 565.4688,428.9764 L565.4688,431.6952 Z " fill="#000000"/><text fill="#D9B8FF" font-family="Helvetica" font-size="17" lengthAdjust="spacing" textLength="116" x="581.5" y="431.9398">aws_kms_key</text></g><!--class aws_redshift_cluster--><g id="elem_aws_redshift_cluster"><rect codeLine="38" fill="#3D176E" height="39.7891" id="aws_redshift_cluster" rx="2.5" ry="2.5" style="stroke:#000D19;stroke-width:0.5;" width="213" x="464" y="206.58"/><ellipse cx="479" cy="226.4745" fill="#ADD1B2" rx="11" ry="11" style="stroke:#181818;stroke-width:1.0;"/><path d="M481.9688,232.1152 Q481.3906,232.412 480.75,232.5527 Q480.1094,232.7089 479.4063,232.7089 Q476.9063,232.7089 475.5781,231.0683 Q474.2656,229.412 474.2656,226.287 Q474.2656,223.162 475.5781,221.5058 Q476.9063,219.8495 479.4063,219.8495 Q480.1094,219.8495 480.75,220.0058 Q481.4063,220.162 481.9688,220.4589 L481.9688,223.1777 Q481.3438,222.5995 480.75,222.3339 Q480.1563,222.0527 479.5313,222.0527 Q478.1875,222.0527 477.5,223.1308 Q476.8125,224.1933 476.8125,226.287 Q476.8125,228.3808 477.5,229.4589 Q478.1875,230.5214 479.5313,230.5214 Q480.1563,230.5214 480.75,230.2558 Q481.3438,229.9745 481.9688,229.3964 L481.9688,232.1152 Z " fill="#000000"/><text fill="#D9B8FF" font-family="Helvetica" font-size="17" lengthAdjust="spacing" textLength="171" x="498" y="232.3598">aws_redshift_cluster</text></g><!--class aws_sagemaker_processing_job--><g id="elem_aws_sagemaker_processing_job"><rect codeLine="41" fill="#3D176E" height="39.7891" id="aws_sagemaker_processing_job" rx="2.5" ry="2.5" style="stroke:#000D19;stroke-width:0.5;" width="306" x="576.5" y="306.37"/><ellipse cx="591.5" cy="326.2645" fill="#ADD1B2" rx="11" ry="11" style="stroke:#181818;stroke-width:1.0;"/><path d="M594.4688,331.9052 Q593.8906,332.202 593.25,332.3427 Q592.6094,332.4989 591.9063,332.4989 Q589.4063,332.4989 588.0781,330.8583 Q586.7656,329.202 586.7656,326.077 Q586.7656,322.952 588.0781,321.2958 Q589.4063,319.6395 591.9063,319.6395 Q592.6094,319.6395 593.25,319.7958 Q593.9063,319.952 594.4688,320.2489 L594.4688,322.9677 Q593.8438,322.3895 593.25,322.1239 Q592.6563,321.8427 592.0313,321.8427 Q590.6875,321.8427 590,322.9208 Q589.3125,323.9833 589.3125,326.077 Q589.3125,328.1708 590,329.2489 Q590.6875,330.3114 592.0313,330.3114 Q592.6563,330.3114 593.25,330.0458 Q593.8438,329.7645 594.4688,329.1864 L594.4688,331.9052 Z " fill="#000000"/><text fill="#D9B8FF" font-family="Helvetica" font-size="17" lengthAdjust="spacing" textLength="264" x="610.5" y="332.1498">aws_sagemaker_processing_job</text></g><!--class aws_vpc--><g id="elem_aws_vpc"><rect codeLine="44" fill="#3D176E" height="39.7891" id="aws_vpc" rx="2.5" ry="2.5" style="stroke:#000D19;stroke-width:0.5;" width="112" x="528.5" y="7"/><ellipse cx="543.5" cy="26.8945" fill="#ADD1B2" rx="11" ry="11" style="stroke:#181818;stroke-width:1.0;"/><path d="M546.4688,32.5352 Q545.8906,32.832 545.25,32.9727 Q544.6094,33.1289 543.9063,33.1289 Q541.4063,33.1289 540.0781,31.4883 Q538.7656,29.832 538.7656,26.707 Q538.7656,23.582 540.0781,21.9258 Q541.4063,20.2695 543.9063,20.2695 Q544.6094,20.2695 545.25,20.4258 Q545.9063,20.582 546.4688,20.8789 L546.4688,23.5977 Q545.8438,23.0195 545.25,22.7539 Q544.6563,22.4727 544.0313,22.4727 Q542.6875,22.4727 542,23.5508 Q541.3125,24.6133 541.3125,26.707 Q541.3125,28.8008 542,29.8789 Q542.6875,30.9414 544.0313,30.9414 Q544.6563,30.9414 545.25,30.6758 Q545.8438,30.3945 546.4688,29.8164 L546.4688,32.5352 Z " fill="#000000"/><text fill="#D9B8FF" font-family="Helvetica" font-size="17" lengthAdjust="spacing" textLength="70" x="562.5" y="32.7798">aws_vpc</text></g><!--link aws_backup_protected_resource to aws_redshift_cluster--><g id="link_aws_backup_protected_resource_aws_redshift_cluster"><path codeLine="47" d="M414.83,147.01 C448.84,164.15 492.902,186.3697 526.892,203.4997 " fill="none" id="aws_backup_protected_resource-to-aws_redshift_cluster" style="stroke:#1A83AF;stroke-width:2.0;"/><polygon fill="#1A83AF" points="532.25,206.2,526.0132,198.5775,527.785,203.9498,522.4128,205.7216,532.25,206.2" style="stroke:#1A83AF;stroke-width:2.0;"/></g><!--link aws_ec2_security_group to aws_redshift_cluster--><g id="link_aws_ec2_security_group_aws_redshift_cluster"><path codeLine="48" d="M877.03,147.01 C810.17,164.12 718.8625,187.4919 651.9525,204.6219 " fill="none" id="aws_ec2_security_group-to-aws_redshift_cluster" style="stroke:#1A83AF;stroke-width:2.0;"/><polygon fill="#1A83AF" points="646.14,206.11,655.8509,207.7529,650.9838,204.8699,653.8667,200.0028,646.14,206.11" style="stroke:#1A83AF;stroke-width:2.0;"/></g><!--link aws_ec2_security_group to aws_sagemaker_processing_job--><g id="link_aws_ec2_security_group_aws_sagemaker_processing_job"><path codeLine="49" d="M930.71,146.99 C888.08,184.76 798.571,264.0712 755.871,301.9012 " fill="none" id="aws_ec2_security_group-to-aws_sagemaker_processing_job" style="stroke:#1A83AF;stroke-width:2.0;"/><polygon fill="#1A83AF" points="751.38,305.88,760.769,302.9058,755.1225,302.5643,755.464,296.9178,751.38,305.88" style="stroke:#1A83AF;stroke-width:2.0;"/></g><!--link aws_ec2_subnet to aws_redshift_cluster--><g id="link_aws_ec2_subnet_aws_redshift_cluster"><path codeLine="50" d="M186.49,146.25 C269.59,163.4 386.6738,187.5472 470.9338,204.9372 " fill="none" id="aws_ec2_subnet-to-aws_redshift_cluster" style="stroke:#1A83AF;stroke-width:2.0;"/><polygon fill="#1A83AF" points="476.81,206.15,468.8043,200.4134,471.9132,205.1394,467.1873,208.2483,476.81,206.15" style="stroke:#1A83AF;stroke-width:2.0;"/></g><!--link aws_ec2_subnet to aws_sagemaker_processing_job--><g id="link_aws_ec2_subnet_aws_sagemaker_processing_job"><path codeLine="51" d="M150.46,147.02 C218.95,171.31 340.9,213.77 446.5,246.37 C517.17,268.19 592.7738,289.0496 650.0838,304.3796 " fill="none" id="aws_ec2_subnet-to-aws_sagemaker_processing_job" style="stroke:#1A83AF;stroke-width:2.0;"/><polygon fill="#1A83AF" points="655.88,305.93,648.2193,299.7402,651.0498,304.638,646.152,307.4685,655.88,305.93" style="stroke:#1A83AF;stroke-width:2.0;"/></g><!--link aws_iam_role to aws_redshift_cluster--><g id="link_aws_iam_role_aws_redshift_cluster"><path codeLine="52" d="M687.66,147.01 C662.06,164.15 629.8454,185.7315 604.2654,202.8615 " fill="none" id="aws_iam_role-to-aws_redshift_cluster" style="stroke:#1A83AF;stroke-width:2.0;"/><polygon fill="#1A83AF" points="599.28,206.2,608.9838,204.5158,603.4345,203.4179,604.5324,197.8686,599.28,206.2" style="stroke:#1A83AF;stroke-width:2.0;"/></g><!--link aws_iam_role to aws_sagemaker_processing_job--><g id="link_aws_iam_role_aws_sagemaker_processing_job"><path codeLine="53" d="M717.77,146.99 C720.26,184.76 725.3475,262.0629 727.8275,299.8929 " fill="none" id="aws_iam_role-to-aws_sagemaker_processing_job" style="stroke:#1A83AF;stroke-width:2.0;"/><polygon fill="#1A83AF" points="728.22,305.88,731.6227,296.6376,727.8929,300.8907,723.6398,297.1609,728.22,305.88" style="stroke:#1A83AF;stroke-width:2.0;"/></g><!--link aws_redshift_cluster to aws_kms_key--><g id="link_aws_redshift_cluster_aws_kms_key"><path codeLine="54" d="M563.76,246.64 C556.41,270.66 547.23,312.75 559.5,346.16 C568.17,369.78 583.0042,387.0762 598.6442,401.6062 " fill="none" id="aws_redshift_cluster-to-aws_kms_key" style="stroke:#1A83AF;stroke-width:2.0;"/><polygon fill="#1A83AF" points="603.04,405.69,599.1689,396.6338,599.3769,402.2868,593.7238,402.4948,603.04,405.69" style="stroke:#1A83AF;stroke-width:2.0;"/></g><!--link aws_redshift_cluster to aws_sagemaker_processing_job--><g id="link_aws_redshift_cluster_aws_sagemaker_processing_job"><path codeLine="55" d="M601.91,246.8 C629.79,263.94 665.1902,285.7052 693.0402,302.8452 " fill="none" id="aws_redshift_cluster-to-aws_sagemaker_processing_job" style="stroke:#1A83AF;stroke-width:2.0;"/><polygon fill="#1A83AF" points="698.15,305.99,692.5818,297.8663,693.8918,303.3693,688.3887,304.6794,698.15,305.99" style="stroke:#1A83AF;stroke-width:2.0;"/></g><!--link aws_sagemaker_processing_job to aws_kms_key--><g id="link_aws_sagemaker_processing_job_aws_kms_key"><path codeLine="56" d="M709.15,346.59 C691.09,363.73 669.1998,384.5072 651.1598,401.6472 " fill="none" id="aws_sagemaker_processing_job-to-aws_kms_key" style="stroke:#1A83AF;stroke-width:2.0;"/><polygon fill="#1A83AF" points="646.81,405.78,656.0898,402.4807,650.4348,402.336,650.5795,396.681,646.81,405.78" style="stroke:#1A83AF;stroke-width:2.0;"/></g><!--link aws_vpc to aws_ec2_security_group--><g id="link_aws_vpc_aws_ec2_security_group"><path codeLine="57" d="M640.79,42.86 C704.82,59.87 803.7613,86.1588 873.9313,104.8088 " fill="none" id="aws_vpc-to-aws_ec2_security_group" style="stroke:#1A83AF;stroke-width:2.0;"/><polygon fill="#1A83AF" points="879.73,106.35,872.0594,100.1724,874.8978,105.0657,870.0045,107.904,879.73,106.35" style="stroke:#1A83AF;stroke-width:2.0;"/></g><!--link aws_vpc to aws_ec2_subnet--><g id="link_aws_vpc_aws_ec2_subnet"><path codeLine="58" d="M528.04,39.21 C444.25,56 292.0131,86.5111 192.2031,106.5111 " fill="none" id="aws_vpc-to-aws_ec2_subnet" style="stroke:#1A83AF;stroke-width:2.0;"/><polygon fill="#1A83AF" points="186.32,107.69,195.9305,109.8438,191.2225,106.7076,194.3587,101.9997,186.32,107.69" style="stroke:#1A83AF;stroke-width:2.0;"/></g><!--link aws_vpc to aws_redshift_cluster--><g id="link_aws_vpc_aws_redshift_cluster"><path codeLine="59" d="M583.13,47.2 C580.46,84.98 574.974,162.275 572.294,200.105 " fill="none" id="aws_vpc-to-aws_redshift_cluster" style="stroke:#1A83AF;stroke-width:2.0;"/><polygon fill="#1A83AF" points="571.87,206.09,576.496,197.3952,572.2233,201.1025,568.516,196.8298,571.87,206.09" style="stroke:#1A83AF;stroke-width:2.0;"/></g><!--SRC=[hPB1Ri8m38RlVOf8d94eQ0Ckapeaj5tGD7QRfYfDN9grJIed1NNJtdqjCDGbj31fXrpiB_xzsqu41m9vOIgIGnu1Qa-dGXOKQKu2HBLRg4mX6SGnZITJExbKqbm4LZG7yW3P5enWr2PU4i5I2LgJSIjrJrcwGLLAVYXla4fTfq2Q5hN8gDQ1CIYYqa2h6JwFPd5iatRHmOJxqrjmC8KSy8YCHYFkpstaebIlxnEn5Xz0_FRGLig0qwOZiQTwkso8LfEEqPzyPuzFb7CXD-Ic5Ni-z8GIy5TydL2kTWqTqqotPRG116Mg0XQEAvZFU3mz2pzsmHvhHaVeJeTHZPH5M63jX1dW8O9M9J8WdvxtrGA1ZKCDh4HXgh0fMfmboaY2iJE2vY6gpAcPvlM3oWuZS9s8s8GiAnitTbxJ3UGq1MpQPlNDrpCBtrLaSzk27KBzHeUl0p-OJOBbs_3khBxNuV__FdOvygov_a6nuqElqcbFr-bquxqgpdgTxyUxk9Bk5UkybLxHvd8Sm5ta1NQ_Wcx6cUat]--></g></svg>

<svg xmlns="http://www.w3.org/2000/svg" width="1082" height="451" viewBox="0 0 1082 451"><rect width="311" height="39.789" x="221" y="106.79" fill="#3D176E" rx="2.5" ry="2.5" style="stroke:#000d19;stroke-width:.5"/><circle cx="236" cy="126.684" r="11" fill="#ADD1B2" style="stroke:#181818;stroke-width:1"/><path d="M238.969 132.325q-.578.297-1.219.438-.64.156-1.344.156-2.5 0-3.828-1.64-1.312-1.657-1.312-4.782t1.312-4.781q1.328-1.656 3.828-1.656.703 0 1.344.156.656.156 1.219.453v2.719q-.625-.579-1.219-.844-.594-.281-1.219-.281-1.344 0-2.031 1.078-.687 1.062-.687 3.156t.687 3.172q.688 1.062 2.031 1.062.625 0 1.219-.265.594-.281 1.219-.86z"/><text x="255" y="132.57" fill="#D9B8FF" font-family="Helvetica" font-size="17" textLength="269">aws_backup_protected_resource</text><rect width="245" height="39.789" x="830" y="106.79" fill="#3D176E" rx="2.5" ry="2.5" style="stroke:#000d19;stroke-width:.5"/><circle cx="845" cy="126.684" r="11" fill="#ADD1B2" style="stroke:#181818;stroke-width:1"/><path d="M847.969 132.325q-.578.297-1.219.438-.64.156-1.344.156-2.5 0-3.828-1.64-1.312-1.657-1.312-4.782t1.312-4.781q1.328-1.656 3.828-1.656.703 0 1.344.156.656.156 1.219.453v2.719q-.625-.579-1.219-.844-.594-.281-1.219-.281-1.343 0-2.031 1.078-.687 1.062-.687 3.156t.687 3.172q.688 1.062 2.031 1.062.625 0 1.219-.265.594-.281 1.219-.86z"/><text x="864" y="132.57" fill="#D9B8FF" font-family="Helvetica" font-size="17" textLength="203">aws_ec2_security_group</text><rect width="179" height="39.789" x="7" y="106.79" fill="#3D176E" rx="2.5" ry="2.5" style="stroke:#000d19;stroke-width:.5"/><circle cx="22" cy="126.684" r="11" fill="#ADD1B2" style="stroke:#181818;stroke-width:1"/><path d="M24.969 132.325q-.578.297-1.219.438-.64.156-1.344.156-2.5 0-3.828-1.64-1.312-1.657-1.312-4.782t1.312-4.781q1.328-1.656 3.828-1.656.703 0 1.344.156.656.156 1.219.453v2.719q-.625-.579-1.219-.844-.594-.281-1.219-.281-1.343 0-2.031 1.078-.687 1.062-.687 3.156t.687 3.172q.688 1.062 2.031 1.062.625 0 1.219-.265.594-.281 1.219-.86z"/><text x="41" y="132.57" fill="#D9B8FF" font-family="Helvetica" font-size="17" textLength="137">aws_ec2_subnet</text><rect width="157" height="39.789" x="638" y="106.79" fill="#3D176E" rx="2.5" ry="2.5" style="stroke:#000d19;stroke-width:.5"/><circle cx="653" cy="126.684" r="11" fill="#ADD1B2" style="stroke:#181818;stroke-width:1"/><path d="M655.969 132.325q-.578.297-1.219.438-.64.156-1.344.156-2.5 0-3.828-1.64-1.312-1.657-1.312-4.782t1.312-4.781q1.328-1.656 3.828-1.656.703 0 1.344.156.656.156 1.219.453v2.719q-.625-.579-1.219-.844-.594-.281-1.219-.281-1.343 0-2.031 1.078-.687 1.062-.687 3.156t.687 3.172q.688 1.062 2.031 1.062.625 0 1.219-.265.594-.281 1.219-.86z"/><text x="672" y="132.57" fill="#D9B8FF" font-family="Helvetica" font-size="17" textLength="115">aws_iam_role</text><rect width="158" height="39.789" x="547.5" y="406.16" fill="#3D176E" rx="2.5" ry="2.5" style="stroke:#000d19;stroke-width:.5"/><circle cx="562.5" cy="426.055" r="11" fill="#ADD1B2" style="stroke:#181818;stroke-width:1"/><path d="M565.469 431.695q-.578.297-1.219.438-.64.156-1.344.156-2.5 0-3.828-1.64-1.312-1.657-1.312-4.782t1.312-4.781q1.328-1.656 3.828-1.656.703 0 1.344.156.656.156 1.219.453v2.719q-.625-.578-1.219-.844-.594-.281-1.219-.281-1.343 0-2.031 1.078-.687 1.062-.687 3.156t.687 3.172q.688 1.062 2.031 1.062.625 0 1.219-.265.594-.281 1.219-.86z"/><text x="581.5" y="431.94" fill="#D9B8FF" font-family="Helvetica" font-size="17" textLength="116">aws_kms_key</text><rect width="213" height="39.789" x="464" y="206.58" fill="#3D176E" rx="2.5" ry="2.5" style="stroke:#000d19;stroke-width:.5"/><circle cx="479" cy="226.475" r="11" fill="#ADD1B2" style="stroke:#181818;stroke-width:1"/><path d="M481.969 232.115q-.578.297-1.219.438-.64.156-1.344.156-2.5 0-3.828-1.64-1.312-1.657-1.312-4.782t1.312-4.781q1.328-1.656 3.828-1.656.703 0 1.344.156.656.156 1.219.453v2.719q-.625-.578-1.219-.844-.594-.281-1.219-.281-1.344 0-2.031 1.078-.687 1.062-.687 3.156t.687 3.172q.688 1.062 2.031 1.062.625 0 1.219-.265.594-.281 1.219-.86z"/><text x="498" y="232.36" fill="#D9B8FF" font-family="Helvetica" font-size="17" textLength="171">aws_redshift_cluster</text><rect width="306" height="39.789" x="576.5" y="306.37" fill="#3D176E" rx="2.5" ry="2.5" style="stroke:#000d19;stroke-width:.5"/><circle cx="591.5" cy="326.264" r="11" fill="#ADD1B2" style="stroke:#181818;stroke-width:1"/><path d="M594.469 331.905q-.578.297-1.219.438-.64.156-1.344.156-2.5 0-3.828-1.64-1.312-1.657-1.312-4.782t1.312-4.781q1.328-1.656 3.828-1.656.703 0 1.344.156.656.156 1.219.453v2.719q-.625-.579-1.219-.844-.594-.281-1.219-.281-1.343 0-2.031 1.078-.687 1.062-.687 3.156t.687 3.172q.688 1.062 2.031 1.062.625 0 1.219-.265.594-.281 1.219-.86z"/><text x="610.5" y="332.15" fill="#D9B8FF" font-family="Helvetica" font-size="17" textLength="264">aws_sagemaker_processing_job</text><rect width="112" height="39.789" x="528.5" y="7" fill="#3D176E" rx="2.5" ry="2.5" style="stroke:#000d19;stroke-width:.5"/><circle cx="543.5" cy="26.895" r="11" fill="#ADD1B2" style="stroke:#181818;stroke-width:1"/><path d="M546.469 32.535q-.578.297-1.219.438-.64.156-1.344.156-2.5 0-3.828-1.64-1.312-1.657-1.312-4.782t1.312-4.781q1.328-1.656 3.828-1.656.703 0 1.344.156.656.156 1.219.453v2.719q-.625-.578-1.219-.844-.594-.281-1.219-.281-1.343 0-2.031 1.078-.687 1.062-.687 3.156t.687 3.172q.688 1.062 2.031 1.062.625 0 1.219-.265.594-.281 1.219-.86z"/><text x="562.5" y="32.78" fill="#D9B8FF" font-family="Helvetica" font-size="17" textLength="70">aws_vpc</text><path fill="none" d="M414.83 147.01c34.01 17.14 78.072 39.36 112.062 56.49" style="stroke:#1a83af;stroke-width:2"/><path fill="#1A83AF" d="m532.25 206.2-6.237-7.623 1.772 5.373-5.372 1.772z" style="stroke:#1a83af;stroke-width:2"/><path fill="none" d="M877.03 147.01c-66.86 17.11-158.168 40.482-225.077 57.612" style="stroke:#1a83af;stroke-width:2"/><path fill="#1A83AF" d="m646.14 206.11 9.71 1.643-4.866-2.883 2.883-4.867z" style="stroke:#1a83af;stroke-width:2"/><path fill="none" d="M930.71 146.99c-42.63 37.77-132.139 117.081-174.839 154.911" style="stroke:#1a83af;stroke-width:2"/><path fill="#1A83AF" d="m751.38 305.88 9.389-2.974-5.647-.342.342-5.646z" style="stroke:#1a83af;stroke-width:2"/><path fill="none" d="M186.49 146.25c83.1 17.15 200.184 41.297 284.444 58.687" style="stroke:#1a83af;stroke-width:2"/><path fill="#1A83AF" d="m476.81 206.15-8.006-5.737 3.11 4.726-4.727 3.11z" style="stroke:#1a83af;stroke-width:2"/><path fill="none" d="M150.46 147.02c68.49 24.29 190.44 66.75 296.04 99.35 70.67 21.82 146.274 42.68 203.584 58.01" style="stroke:#1a83af;stroke-width:2"/><path fill="#1A83AF" d="m655.88 305.93-7.66-6.19 2.83 4.898-4.898 2.83z" style="stroke:#1a83af;stroke-width:2"/><path fill="none" d="M687.66 147.01c-25.6 17.14-57.815 38.722-83.395 55.852" style="stroke:#1a83af;stroke-width:2"/><path fill="#1A83AF" d="m599.28 206.2 9.704-1.684-5.55-1.098 1.098-5.55z" style="stroke:#1a83af;stroke-width:2"/><path fill="none" d="M717.77 146.99a562411 562411 0 0 1 10.058 152.903" style="stroke:#1a83af;stroke-width:2"/><path fill="#1A83AF" d="m728.22 305.88 3.403-9.242-3.73 4.253-4.253-3.73z" style="stroke:#1a83af;stroke-width:2"/><path fill="none" d="M563.76 246.64c-7.35 24.02-16.53 66.11-4.26 99.52 8.67 23.62 23.504 40.916 39.144 55.446" style="stroke:#1a83af;stroke-width:2"/><path fill="#1A83AF" d="m603.04 405.69-3.871-9.056.208 5.653-5.653.208z" style="stroke:#1a83af;stroke-width:2"/><path fill="none" d="M601.91 246.8c27.88 17.14 63.28 38.905 91.13 56.045" style="stroke:#1a83af;stroke-width:2"/><path fill="#1A83AF" d="m698.15 305.99-5.568-8.124 1.31 5.503-5.503 1.31z" style="stroke:#1a83af;stroke-width:2"/><path fill="none" d="M709.15 346.59c-18.06 17.14-39.95 37.917-57.99 55.057" style="stroke:#1a83af;stroke-width:2"/><path fill="#1A83AF" d="m646.81 405.78 9.28-3.3-5.655-.144.145-5.655z" style="stroke:#1a83af;stroke-width:2"/><path fill="none" d="M640.79 42.86c64.03 17.01 162.971 43.299 233.141 61.949" style="stroke:#1a83af;stroke-width:2"/><path fill="#1A83AF" d="m879.73 106.35-7.67-6.178 2.838 4.894-4.894 2.838z" style="stroke:#1a83af;stroke-width:2"/><path fill="none" d="M528.04 39.21C444.25 56 292.013 86.511 192.203 106.511" style="stroke:#1a83af;stroke-width:2"/><path fill="#1A83AF" d="m186.32 107.69 9.61 2.154-4.708-3.136L194.36 102z" style="stroke:#1a83af;stroke-width:2"/><path fill="none" d="M583.13 47.2c-2.67 37.78-8.156 115.075-10.836 152.905" style="stroke:#1a83af;stroke-width:2"/><path fill="#1A83AF" d="m571.87 206.09 4.626-8.695-4.273 3.707-3.707-4.272z" style="stroke:#1a83af;stroke-width:2"/></svg>
